!!!COM: Bach, Johann Sebastian
!!!CDT: 1685/02/21/-1750/07/28/
!!!OTL@@DE:	Puer natus in Bethlehem
!!!SCT: BWV 65/2
!!!PC#:	12
!!!AGN: chorale
**harm	**kern	**kern	**kern	**kern
*	*ICvox	*ICvox	*ICvox	*ICvox
*	*Ibass	*Itenor	*Ialto	*Isoprn
*	*I"Bass	*I"Tenor	*I"Alto	*I"Soprano
*	*	*oclefC4	*oclefC3	*oclefC1
*	*clefF4	*clefGv2	*clefG2	*clefG2
*k[]	*k[]	*k[]	*k[]	*k[]
*a:	*a:	*a:	*a:	*a:
*M3/4	*M3/4	*M3/4	*M3/4	*M3/4
*MM100	*MM100	*MM100	*MM100	*MM100
i	4AA	4c	4e	4a
=1	=1	=1	=1	=1
i	2A	2c	2e	2a
C:V6/V	4F#	4d	4a	4a
=2	=2	=2	=2	=2
V	2G	2d	2g	2b
V2	4FnX	4d	4g	4b
=3	=3	=3	=3	=3
I6	4E	4c	4g	4cc
I	4C	4e	4g	4cc
IV	4F	4c	4f	4a
=4	=4	=4	=4	=4
I;	2.C;	2.c;	2.e;	2.g;
=5	=5	=5	=5	=5
I	2C	2e	2g	2cc
V43/vi	4B	4e	4g#	4dd
=6	=6	=6	=6	=6
vi	4A	4e	4a	4cc
V65/V	4F#	4d	4a	4cc
V	4G	4d	4gnX	4b
=7	=7	=7	=7	=7
I;	2C;	2e;	2g;	2cc;
I	4c	4e	4g	4cc
=8	=8	=8	=8	=8
vi	4A	4e	4a	4cc
G:V65	4F#	4d	4a	4cc
V7	4D	4d	4f#	4cc
=9	=9	=9	=9	=9
I	4G	4d	4g	4b
vi	4E	4e	4g	4b
V65/V	4C#	4e	4g	4a
=10	=10	=10	=10	=10
V	4D	4d	4f#	4a
a:V6/V	4D#	4B	4f#	4b
V	4E	4B	4e	4g#
=11	=11	=11	=11	=11
i;	2AA;	2c;	2e;	2a;
iv6	4F	4A	4d	4a
=12	=12	=12	=12	=12
C:V2	4F	4B	4d	4gnX
I6	4E	4c	4e	4g
V6/V	4F#	4A	4d	4a
=13	=13	=13	=13	=13
V	2G	2G	2d	2b
a:viio7	4G#	4d	4fnX	4b
=14	=14	=14	=14	=14
i	4A	4c	4e	4cc
iv7	4D	4d	4f	4cc
v7	4E	4d	4gnX	4b
=15	=15	=15	=15	=15
VI	4F	4c	4a	4a
viio7/V	4D#	4c	4f#	4a
V	4E	4B	4e	4g#
=16	=16	=16	=16	=16
i;	2AA;	2c#;	2e;	2a;
==	==	==	==	==
*-	*-	*-	*-	*-
!!!YOR1: 371 vierstimmige Choralges&auml;nge von Johann Sebastian Bach, 
!!!YOR2: 4th ed. by Alfred D&ouml;rffel (Leipzig: Breitkopf und H&auml;rtel, 
!!!YOR2: c.1875). 178 pp. Plate "V.A.10".  reprint: J.S. Bach, 371 Four-Part 
!!!YOR4: Chorales (New York: Associated Music Publishers, Inc., c.1940).
!!!SMS: B&H, 4th ed, Alfred D&ouml;rffel, c.1875, plate V.A.10
!!!EED:  Craig Stuart Sapp
!!!EEV:  2009/05/22
